X:1
T:Title
%%score { ( 1 5 ) | ( 2 3 4 ) }
L:1/8
Q:1/4=78
M:6/8
K:G
V:1 treble nm="Grand Piano"
V:5 treble 
V:2 bass 
V:3 bass 
V:4 bass 
V:1
 [DB]_B=B G2 D | [DB]_B=B .G3 | [FA][GB][Ac] [Ac][GB][FA] | B2 c .d3 | B_B=B G2 D | %5
w: W.~A.~Ogden * * * *|||||
 B_B[D=B] .[B,DG]3 | [EA]>[E^GB][EAc] [C=GB][B,DG][CDA] | [B,DG]6 | [Fd]>[Fd][Fd] dcA | %9
w: ||||
 G->[B,DG-][B,DG-] [B,DG]3 | [FA]>[GB][Ac] ce[Fd] | d3 z3 | [DGB]>[DGB][DGB] [DGB][DFA][D=FG] | %13
w: ||||
 [EG]>[EG][EG] [EG][DF]E | DGB [Fc]2 [CDF] | [B,DG]6 |] %16
w: |||
V:2
 z ^C[G,D] [G,B,D]2 G, | z ^C[G,D] .[G,B,D]3 | [D,D]2 [D,D] [D,D]2 [D,D] | %3
 [G,DG]2 [G,A,G] .[G,B,G]3 | D^C[K:bass][G,D] [G,B,D]2 [G,B,] | D^CG, .G,3 | C,>B,,A,, D,D,D, | %7
 G,,6 | z3 .F3 | G,,>B,,D, .G,3 | [D,D]>[D,D][D,D] A,C[D,C] | %11
 [G,B,G]>[G,B,][K:bass][G,B,] .[G,D]3 | G,,>G,,G,, G,,A,,B,, | %13
 [C,C]>[C,C][C,C] [C,G,][C,G,][C,G,C] | [D,G,B,][D,B,D][D,G,D] [D,A,]2 D, | G,,6 |] %16
V:3
 .G,3 z3 | .G,3 z3 | x6 | x6 | .G,3[K:bass] z3 | .G,3 z3 | x6 | x6 | [D,A,]3/2.[D,A,]3/2 z2 F | %9
 x6 | z3 .D,3 | x2[K:bass] x4 | x6 | x6 | x6 | x6 |] %16
V:4
 x6 | x6 | x6 | x6 | x2[K:bass] x4 | x6 | x6 | x6 | z2 [D,A,]- [D,A,] [D,C]2 | x6 | x6 | %11
 x2[K:bass] x4 | x6 | x6 | x6 | x6 |] %16
V:5
 x6 | x6 | x6 | x6 | x6 | x6 | x6 | x6 | x6 | .B,3 z3 | z3 .F3 | z z/ G/G .[GB]3 | x6 | x6 | x6 | %15
 x6 |] %16

